SF_Symbols/plus.forwardslash.minus.svg

<?xml version="1.0" encoding="UTF-8"?>
<svg xmlns="http://www.w3.org/2000/svg" xmlns:xlink="http://www.w3.org/1999/xlink" width="24" height="24" viewBox="0 0 24 24" version="1.1">
<g id="surface1">
<path style=" stroke:none;fill-rule:nonzero;fill:rgb(100%,100%,100%);fill-opacity:1;" d="M 0.914062 7.359375 C 0.914062 7.585938 0.992188 7.78125 1.148438 7.945312 C 1.3125 8.101562 1.511719 8.179688 1.746094 8.179688 L 4.125 8.179688 L 4.125 10.570312 C 4.125 10.804688 4.207031 11 4.371094 11.15625 C 4.535156 11.3125 4.726562 11.390625 4.945312 11.390625 C 5.179688 11.390625 5.375 11.3125 5.53125 11.15625 C 5.695312 10.992188 5.777344 10.796875 5.777344 10.570312 L 5.777344 8.179688 L 8.167969 8.179688 C 8.402344 8.179688 8.597656 8.101562 8.753906 7.945312 C 8.917969 7.78125 9 7.585938 9 7.359375 C 9 7.125 8.917969 6.929688 8.753906 6.773438 C 8.597656 6.609375 8.402344 6.527344 8.167969 6.527344 L 5.777344 6.527344 L 5.777344 4.136719 C 5.777344 3.902344 5.695312 3.707031 5.53125 3.550781 C 5.375 3.386719 5.179688 3.304688 4.945312 3.304688 C 4.71875 3.304688 4.523438 3.386719 4.359375 3.550781 C 4.203125 3.707031 4.125 3.902344 4.125 4.136719 L 4.125 6.527344 L 1.746094 6.527344 C 1.511719 6.527344 1.3125 6.609375 1.148438 6.773438 C 0.992188 6.929688 0.914062 7.125 0.914062 7.359375 Z M 12.808594 13.019531 L 19.605469 2.964844 C 19.683594 2.847656 19.738281 2.738281 19.769531 2.636719 C 19.808594 2.535156 19.828125 2.425781 19.828125 2.308594 C 19.828125 2.074219 19.738281 1.878906 19.558594 1.722656 C 19.386719 1.558594 19.179688 1.476562 18.9375 1.476562 C 18.734375 1.476562 18.5625 1.519531 18.421875 1.605469 C 18.289062 1.683594 18.140625 1.84375 17.976562 2.085938 L 11.25 12.070312 L 4.441406 22.101562 C 4.363281 22.210938 4.304688 22.316406 4.265625 22.417969 C 4.226562 22.527344 4.207031 22.644531 4.207031 22.769531 C 4.207031 23.027344 4.296875 23.230469 4.476562 23.378906 C 4.664062 23.535156 4.886719 23.613281 5.144531 23.613281 C 5.339844 23.613281 5.503906 23.566406 5.636719 23.472656 C 5.769531 23.386719 5.910156 23.234375 6.058594 23.015625 Z M 15 18.539062 C 15 18.773438 15.078125 18.972656 15.234375 19.136719 C 15.398438 19.292969 15.59375 19.371094 15.820312 19.371094 L 22.253906 19.371094 C 22.480469 19.371094 22.675781 19.292969 22.839844 19.136719 C 23.003906 18.972656 23.085938 18.773438 23.085938 18.539062 C 23.085938 18.3125 23.003906 18.121094 22.839844 17.964844 C 22.675781 17.800781 22.480469 17.71875 22.253906 17.71875 L 15.820312 17.71875 C 15.59375 17.71875 15.398438 17.800781 15.234375 17.964844 C 15.078125 18.121094 15 18.3125 15 18.539062 Z M 15 18.539062 "/>
</g>
</svg>

<svg xmlns="http://www.w3.org/2000/svg" width="24" height="24"><path style="stroke:none;fill-rule:nonzero;fill:#fff;fill-opacity:1" d="M.914 7.36a.82.82 0 0 0 .234.585c.16.157.375.239.598.235h2.379v2.39c0 .235.082.43.246.586a.81.81 0 0 0 .574.235c.235 0 .43-.079.586-.235a.794.794 0 0 0 .246-.586V8.18h2.391c.234 0 .43-.078.586-.235A.788.788 0 0 0 9 7.36a.788.788 0 0 0-.246-.586.788.788 0 0 0-.586-.246h-2.39v-2.39a.794.794 0 0 0-.247-.586.788.788 0 0 0-.586-.246.818.818 0 0 0-.586.246.79.79 0 0 0-.234.586v2.39H1.746a.814.814 0 0 0-.598.246.79.79 0 0 0-.234.586Zm11.895 5.66 6.796-10.055c.079-.117.133-.227.165-.328a.937.937 0 0 0 .058-.328c0-.235-.09-.43-.27-.586a.88.88 0 0 0-.62-.246.993.993 0 0 0-.516.128c-.133.079-.281.239-.445.48L11.25 12.07 4.441 22.102a1.56 1.56 0 0 0-.175.316c-.04.11-.059.227-.059.352 0 .257.09.46.27.609.187.156.41.234.668.234.195 0 .359-.047.492-.14.133-.086.273-.239.422-.457ZM15 18.54c0 .233.078.433.234.597a.82.82 0 0 0 .586.234h6.434a.826.826 0 0 0 .594-.238.826.826 0 0 0 .238-.594.762.762 0 0 0-.246-.574.788.788 0 0 0-.586-.246H15.82a.788.788 0 0 0-.586.246.778.778 0 0 0-.234.574Zm0 0"/></svg>
